!!!OTL: 47. Marschlied der Jaeger.
!!!COM: Alb. Methfessel
!!!ODT: 1813
!!!ARE: Europa, Mitteleuropa, Deutschland
!!!SCT: B0047
!!!TXL: @@DE
!!!YEM: Copyright 1995, estate of Helmut Schaffrath.
**kern	**text
*ICvox	*
*Ivox	*
*M2/4	*
*clefG2	*
*k[b-e-]	*
*B-:	*
!LO:TX:a:t=Heiter und kräftig.	!
{8f	Hie-
=1	=1
4b-	-naus
8b-	in
8dd	die
=2	=2
4b-	Fer-
8b-}	-ne
{8f	mit
=3	=3
8.b-	lau-
16f	-tem
8b-	Hör-
8dd	-ner-
=4	=4
4b-	-klang,
8r}	.
{8dd	die
=5	=5
4cc	Stim-
8dd	-men
8een	er-
=6	=6
4ff	-he-
8cc}	-bet
{8dd	ʒum
=7	=7
8.cc	männli-
16b-	.
8a	-chen
8g	Ge-
=8	=8
4f	-ſang!
8r}	.
{8f	Der
=9	=9
!LO:TX:a:t=P:encoded only higher voice:problem	!
4cc^	Frei-
4dd^	-heit
=10	=10
4.cc^}	Hauch
{8cc/	weht
=11	=11
8.dd/	kräf-
16cc/	-tig
8b-/	durch
8dd/	die
=12	=12
4cc/	Welt,
8r}	.
{8f	ein
=13	=13
8d	frei-
8f	-es,
8b-/	fro-
8dd/	-hes
=14	=14
4ff/	Le-
8.ee-/}	-ben
{16ee-/	uns
=15	=15
4dd/	wohl-
4cc/	-ge-
=16	=16
4b-/	-fällt.
8r}	.
{8f	Der
=17	=17
4cc^	Frei-
4dd^	-heit
=18	=18
4.cc^}	Hauch
{8cc/	weht
=19	=19
8.dd/	kräf-
16cc/	-tig
8b-/	durch
8dd/	die
=20	=20
4cc/	Welt,
8r}	.
{8f	ein
=21	=21
8d	frei-
8f	-es,
8b-/	fro-
8dd/	-hes
=22	=22
4ff/	Le-
8.ee-/}	-ben
{16ee-/	uns
=23	=23
4dd/	wohl-
4cc/	-ge-
=24	=24
4b-/	-fällt.
8r}	.
==	==
!!!AGN: Kriegs -, Sieges -, Soldaten - Lied
!!!GTL: Kriegs- und Siegeslieder
!!!ONB: ESAC (Essen Associative Code) Database: BOEHME
!!!AMT: simple duple
!!!AIN: vox
!!!EED: Helmut Schaffrath
!!!EEV: 1.0
!!@@COMMENT:"Text vom Komponiſten Alb. Methfeſſel ſelbſt 1813. Ʒuerſt in der Ʒeitung für die elegante
!!Welt, 1814 Nr. 63 (als Beilage Nr. 3). dann in Methfeſſels Commersbuche 1818."
!!@@END:
!!Text: Alb. Methfessel
!!!URL-scan: https://archive.org/details/BoehmeVtLieder1895/page/n63/mode/2up
!!!ENC: Anna Maria Matuszewska
!!!EEV: 2024/14/06
*-	*-
